X: 1
T: Humours Of Glendart, The
M: 6/8
L: 1/8
R: jig
K: Dmaj
|:BAF ADD|FEF DFA|BAF ADD|FEE E2A|BAF ADD|FEF DFA|
dcB AFE|FDD D2D:|def d2B|ABA AFD|def d2d|
ede fdB|def d2B|dBA ABc|dcB AFE|FDD D2A:|
